X: 33903
T: Red Planet, The
R: slide
M: 12/8
K: Dmajor
|:D2 A GFD =CB,C A,B,C|D2 A GFD =CB,C D2 A,|
D2 A GFD =C2 D A,2 B,|C2 D E2 F EDC D2 z:|
|:cde dcA GAG FED|cde dcA GFG A3|
cde dcA GAG FEF|GFG AGF A,2 C D3:|

